X: 11810
T: Ellen's Struggle
R: reel
M: 4/4
K: Gminor
fg/f/ df g3a|fd Bd cF FA|GD DC DB BG|Ac cA Bd cf|
gf df g3a|fd Bd cF FA|GD DC D B, B,G,|1 A,C CA, B,A, G,2:|2 A,C CA, B,A, G,D||
|:EB, DG FC CD-|DG, G,E DC B,D|EB, DG FG AG|FA cd BG Bc|
dB B/B/B df cB|AF F/F/F cd BA|GD DC DB, B,G,|1 A,C CA, B,A, G,D:|2 A,C CA, B,A, G,2||

